!!!!SEGMENT: pl-kk--kk-i-382--013-006_fuhrer-robert--msza-na-4ry-glosy-agnus-dei.krn
!!!cenid: 18xx:1515
!!!COM: Führer, Robert
!!!COM-rismID: pe30001170
!!!CDT: 1807/06/02-1861/11/28
!!!CNT: Czech
!!!OPR: Msza na 4ry głosy
!!!OTL: Agnus Dei
!!!OMV: 006
!!!PDT:
!!!AGN: Sacred; Mass
!!!SMS-siglum: PL-Kk
!!!SMS-shelfmark: Kk.I.382
!!!SMS-shelfwork: 013-006 M
!!!SMS-variant:
!!!SMS-altvar:
!!!NIFC-rismSourceID: 1001139027
!!!NIFC-rismChildID: 1001139162
!!!NIFC-islandoraID: pl-kk:6162
!!!URL-pdf-islandora: https://repozytorium.nifc.pl/islandora/object/pl-kk%3A6162/datastream/PDF/view
!!!URL-scan: https://polish.musicsources.pl/pl/lokalizacje/galeria/rekopisy/5994 @EN{Scan on Polish Music Sources Website} @PL{Skany w portalu Dziedzictwo Muzyki Polskiej w otwartym dostępie}
!!!IIIF:
!!!ONB-nifc: UWAGA: obsada: S (T 1), T 2, B 1, B 2. Osobne części Mszy: Kyrie, Gloria, Credo, Sanctus, Benedictus, Agnus Dei. S (T 1): skan 0030; T 2: skan 0178; B 1: skan 0101-0102; B 2: skan 0249-0250
!!!AIN: 1 bass 1 empty 2 tenor
!!!key:
**kern	**text	**kern	**text	**kern	**text	**dynam	**kern	**text	**dynam
*part4	*part4	*part3	*part3	*part2	*part2	*part2	*part1	*part1	*part1
*staff4	*staff4	*staff3	*staff3	*staff2	*staff2	*	*staff1	*staff1	*
*Ibass	*	*Iempty	*	*Itenor	*	*	*Itenor	*	*
*I"Basso IIgi	*	*I"Bas Iszy	*	*I"Tenor IIgi	*	*	*I"Soprano vel Tenore I.	*	*
*I'B 2	*	*I'B 1	*	*I'T 2	*	*	*I'S (T 1)	*	*
*clefF4	*	*clefF4	*	*clefG2	*	*	*clefG2	*	*
*	*	*	*	*Trd0c0	*	*	*Trd0c0	*	*
*k[]	*	*k[]	*	*k[]	*	*	*k[]	*	*
*a:	*	*a:	*	*a:	*	*	*a:	*	*
*M3/4	*	*M3/4	*	*M3/4	*	*	*M3/4	*	*
=1	=1	=1	=1	=1	=1	=1	=1	=1	=1
!	!	!LO:TX:a:t=Larghetto	!	!	!	!	!	!	!
!	!	!LO:TX:i:a:t=a.	!	!LO:TX:a:t=Larghetto	!	!	!	!	!
!LO:TX:a:t=Larghetto	!	!LO:TX:i:a:t=we Wrześniu 1868, roku\nMsze św&colon; na 4. męskie głosy! wpisałem na pamiątkę\nKasper Molęcki	!	!	!	!	!LO:TX:a:t=Larghetto	!	!
!LO:TX:a:t=P:problem=napis "Larghetto" na pięciolinii przed kluczem	!	!LO:TX:a:t=P:problem=napis "Larghetto" na pięciolinii przed kluczem	!	!LO:TX:a:t=P:problem=napis "Larghetto" na pięciolinii przed kluczem	!	!	!LO:TX:a:t=P:problem=napis "Larghetto" na pięciolinii przed kluczem	!	!
(<4AA/	A-	(>4E\	A-	4a/	A-	.	(>4cc\	A-	.
4D/)	.	4F\)	.	4g#X/	.	.	4b\)	.	.
4C/	-gnus	4E\	-gnus	4a/	-gnus	.	4a/	-gnus	.
=2	=2	=2	=2	=2	=2	=2	=2	=2	=2
4BB/	De-	4E\	De-	4g#X/	De-	.	4dd\	De-	.
!	!	!	!	!LO:TX:a:t=a	!	!	!	!	!
4AA/	-i,	4E\	-i	4a/	-i	.	4cc\	-i	.
8r	.	8r	.	8r	.	.	8r	.	.
!	!	!	!	!LO:TX:a:t=a	!	!	!	!	!
8AA/	qui	8E\	qui	8a/	qui	.	8cc\	qui	.
=3	=3	=3	=3	=3	=3	=3	=3	=3	=3
4D\	tol-	4F\	tol-	4a/	tol-	.	(>8.b\L	tol-	.
.	.	.	.	.	.	.	16cc\Jk	.	.
8D\	-lis	8F\	-lis	8a/	-lis	.	8b\)	-lis	.
8D\	pec-	8F\	pec-	8a/	pec-	.	8b\	pec-	.
!	!	!LO:LB:g=original	!	!LO:LB:g=original	!	!	!	!	!
8D#X\	-ca-	8.F#X\	-ca-	8.a/	-ca-	.	8.b\	-ca-	.
8D#\	-ta	.	.	.	.	.	.	.	.
.	.	16F#\	-ta	16a/	-ta	.	16b\	-ta	.
!	!	!	!	!	!	!	!LO:LB:g=original	!	!
=4	=4	=4	=4	=4	=4	=4	=4	=4	=4
4E\	mun-	4E\	mun-	4g#X/	mun-	.	(>8.b\L	mun-	.
.	.	.	.	.	.	.	16cc\Jk)	.	.
4E\	-di	4E\	-di	4g#/	-di	.	4b\	-di	.
!LO:TX:t=P::problem=alternatywny tekst dopisany ołówkiem&colon; dona eis requiem	!	!	!	!LO:TX:t=P::problem=alternatywny tekst dopisany ołówkkiem&colon; dona eis requiem	!	!	!	!	!
8E\	mi-	8.G#X\	mi-	8.b/	mi-	.	8.ee\	mi-	.
8E\	-se-	.	.	.	.	.	.	.	.
.	.	16G#\	-se-	16b/	-se-	.	16dd\	-se-	.
!LO:LB:g=original	!	!	!	!	!	!	!	!	!
=5	=5	=5	=5	=5	=5	=5	=5	=5	=5
(>4AA/	-re-	(>2A\	-re-	[<2.a/	-re-	.	[>2.cc\	-re-	.
4A\	.	.	.	.	.	.	.	.	.
4Gn\)	-re-	4Gn\	.	.	.	.	.	.	.
=6	=6	=6	=6	=6	=6	=6	=6	=6	=6
!	!	!	!	!	!	!	!	!	!LO:HP:a
(>4F\	.	4F\	.	2a/]	.	.	2cc\]	.	>
4E\)	.	4E\	.	.	.	.	.	.	]
4D#X\	-re	4D#X\)	-re	4a/	re	.	4cc\	-re	.
=7	=7	=7	=7	=7	=7	=7	=7	=7	=7
2.E\	no-	(>2E\	no-	4a/	no-	.	(>4cc\	no-	.
.	.	.	.	2g#X/	.	.	4b\	.	.
.	.	8.E\L	.	.	.	.	4ee\)	.	.
.	.	16D\Jk)	.	.	.	.	.	.	.
=8	=8	=8	=8	=8	=8	=8	=8	=8	=8
2AA/	-bis.	2C/	-bis,	2a/	-bis.	.	2a/	-bis,	.
!	!	!	!	!LO:TX:i:b:t=V[olti]. S[ubito].	!	!	!	!	!
4r	.	4r	.	4r	.	.	4r	.	.
!	!	!LO:LB:g=original	!	!LO:PB:g=original	!	!	!	!	!
=9	=9	=9	=9	=9	=9	=9	=9	=9	=9
2AA/	A-	2A\	a-	(>4cc\	A-	.	(>4ee\	a-	.
.	.	.	.	4dd\)	.	.	4ff\)	.	.
4A\	-gnus	4A\	-gnus	4cc\	-gnus	.	4ee\	-gnus	.
!	!	!	!	!	!	!	!LO:LB:g=original	!	!
=10	=10	=10	=10	=10	=10	=10	=10	=10	=10
4E\	De-	4G#X\	De-	4b\	De-	.	(>8ee\L	De-	.
.	.	.	.	.	.	.	8dd\J	.	.
4F\	-i	4A\	-i	4a/	-i	.	4cc\)	-i	.
8r	.	8r	.	8r	.	.	8r	.	.
!LO:TX:i:b:t=V[olti]. S[ubito].	!	!	!	!	!	!	!LO:TX:t=P::problem=alternatywny tekst dopisany ołówkkiem&colon; dona eis requiem	!	!
8E\	qui	8Gn\	qui	8a/	qui	.	8cc#X^>\	qui	.
!LO:PB:g=original	!	!	!	!	!	!	!	!	!
=11	=11	=11	=11	=11	=11	=11	=11	=11	=11
(>8D\L	tol-	(>8F\L	tol-	4a/	tol-	.	(>8dd\L	tol-	.
8E\J)	.	8G\J)	.	.	.	.	8cc#X\J)	.	.
8D/	-lis	8F\	-lis	8a/	-lis	.	8dd\	-lis	.
8C#X/	pec-	8G\	pec-	8a/	pec-	.	8ee\	pec-	.
8D\	-ca-	8F\	-ca-	8a/	-ca-	.	8ff\	-ca-	.
8FF/	-ta	8F\	-ta	8a/	-ta	.	8dd\	-ta	.
=12	=12	=12	=12	=12	=12	=12	=12	=12	=12
4GG/	mun-	4E\	mun-	4g/	mun-	.	4ccn\	mun-	.
4GG/	-di,	4D\	-di	4g/	-di	.	4b\	-di	.
!LO:TX:t=P:problem=dopisek ołówkiem - cue notes (bas I)	!	!	!	!	!	!	!	!	!
4r	.	4G\	pec-	4b/	pec-	.	4dd\	pec-	.
!	!	!	!	!LO:LB:g=original	!	!	!	!	!
=13	=13	=13	=13	=13	=13	=13	=13	=13	=13
!LO:TX:a:t=i	!	!	!	!	!	!	!	!	!
2.r	.	(>4G\	-ca-	2cc\	-ca-	.	2ee-X\	-ca-	.
!	!	!	!	!	!	!LO:HP:a	!	!	!LO:HP:a
.	.	4A-X\)	.	.	.	<	.	.	<
.	.	4F#X\	-ta	4cc\	-ta	[[	4ee-\	-ta	[[
!	!	!LO:LB:g=original	!	!	!	!	!LO:LB:g=original	!	!
=14	=14	=14	=14	=14	=14	=14	=14	=14	=14
!	!	!	!	!	!	!	!LO:SIC:v:s=4ee-	!	!
4r	.	4G\	mun-	4cc\	mun-	.	4ee\	mun-	.
4r	.	4G\	-di	4b\	-di	.	4dd\	-di	.
4GG/	pec-	4D\	pec-	4g/	pec-	.	4b\	pec-	.
=15	=15	=15	=15	=15	=15	=15	=15	=15	=15
2GG/	-ca-	(>4D\	-ca-	2g/	-ca-	.	(>4b\	-ca-	.
.	.	4E-X\)	.	.	.	.	4cc\)	.	.
4GG/	-ta	4C\	-ta	4e-X/	-ta	.	4f#X/	-ta	.
=16	=16	=16	=16	=16	=16	=16	=16	=16	=16
4GG/	mun-	4C/	mun-	4e-X/	mun-	.	4f#X/	mun-	.
4GG/	-di.	4BB/	-di.	4d/	-di.	.	4g/	-di.	.
!LO:TX:t=P:problem=2 takty dopisane ołówkiem	!	!	!	!LO:TX:i:b:t=Wpisałem te mszą 1868 w Wrzesniu Kasper Molęcki.	!	!	!	!	!
!LO:TX:i:b:t=Wpisałem te mszą na męskie głosy\nw 1868. we Wrześniu K. Molęcki	!	!	!	!LO:TX:t=P:problem=2 takty dopisane ołówkiem	!	!	!LO:TX:i:b:t=Wpisałem te mszą na 4-ry Męskie głosy\nw Roku 1868. we Wrześniu Molęcki Kasper	!	!
!	!	!	!	!	!	!	!LO:TX:t=P:problem=2 takty dopisane ołówkiem	!	!
!LO:TX:a:t=Dona	!	!LO:TX:a:t=Dona	!	!LO:TX:a:t=Dona	!	!	!LO:TX:a:t=Dona	!	!
!LO:TX:t=P:problem=napis "Dona" za kreską	!	!LO:TX:t=P:problem=napis "Dona" za kreską na pięciolinii	!	!LO:TX:t=P:problem=napis "Dona" za kreską na pięciolinii	!	!	!LO:TX:t=P:problem=napis "Dona" za kreską na pięciolinii	!	!
4r;>	.	4r;>	.	4r	.	.	4r;>	.	.
==	==	==	==	==	==	==	==	==	==
*-	*-	*-	*-	*-	*-	*-	*-	*-	*-
!!!system-decoration: [(s1,s2,s3,s4)]
!!!RDF**kern: > = above
!!!RDF**kern: < = below
!!!EED: Mateusz Mrugas
!!!EEV: 2021-02-06
!!!ENC: Krzysztof Stępień
!!!END: 2021-01-29
!!!YEC: Copyright 2022 Narodowy Instytut Fryderyka Chopina (https://polishscores.org)
!!!YEM: License CC-BY-4.0 (https://creativecommons.org/licenses/by/4.0)
